img/vector/chars/Vector-R.svg

<svg width="113" height="109" viewBox="0 0 113 109" fill="none" xmlns="http://www.w3.org/2000/svg">
<path d="M0.578125 20.8999C0.578125 18.4112 0.784407 15.7406 1.19919 12.8881C1.61176 10.0334 2.80509 7.5159 4.77475 5.33773C6.84867 3.05532 9.28635 1.60247 12.0856 0.981403C14.887 0.362555 17.3291 0.0498047 19.4053 0.0498047H78.6815C80.3363 0.0498047 82.3059 0.105257 84.5905 0.209507C86.873 0.311539 89.2064 0.699705 91.5908 1.37179C93.9797 2.04609 96.3132 3.11299 98.5911 4.56584C100.874 6.01647 102.896 8.03715 104.66 10.6257C107.049 14.1524 108.581 18.1472 109.256 22.6122C109.928 27.0728 110.267 31.3759 110.267 35.5215C110.267 36.7636 110.241 38.4516 110.187 40.5788C110.134 42.7037 109.95 45.0105 109.637 47.4992C109.329 49.9901 108.914 52.5343 108.395 55.1294C107.881 57.7202 107.155 60.1046 106.221 62.2806C104.145 67.1559 101.317 70.6317 97.7394 72.7056C94.1594 74.7817 90.2445 75.8198 85.9924 75.8198H81.3255V76.4409L112.441 108.958H70.1197L49.1188 80.6375C47.3554 78.2553 45.6697 75.8708 44.0616 73.4864C42.4513 71.0975 41.6483 68.5578 41.6483 65.865V63.5227C41.6483 59.8983 43.1255 56.9438 46.0845 54.6592C49.0412 52.3768 52.8009 51.2345 57.3613 51.2345H62.9686C64.5235 51.2345 66.2336 51.0548 68.0968 50.6933C69.9645 50.3273 71.5238 49.4201 72.7726 47.9694C73.5999 46.8293 74.1944 45.4031 74.5559 43.693C74.9219 41.9784 75.106 40.3969 75.106 38.9463C75.106 35.9363 74.7666 33.7559 74.0945 32.4073C73.4202 31.0609 72.8724 30.1781 72.4531 29.7634C71.1046 28.3149 69.5475 27.5142 67.7863 27.3589C66.0229 27.2015 64.3128 27.1194 62.6581 27.1194H43.2098C42.1673 27.1194 41.2069 27.2015 40.3263 27.3589C39.4435 27.5142 38.5896 28.0044 37.7622 28.8318C36.6199 29.8676 35.9944 30.9323 35.8901 32.0258C35.7881 33.1149 35.7393 34.3348 35.7393 35.6812V108.958H0.578125V20.8999Z"/>
</svg>

<svg width="113" height="109" viewBox="0 0 113 109" fill="none" xmlns="http://www.w3.org/2000/svg"><path d="M.578 20.9c0-2.489.206-5.16.621-8.012.412-2.855 1.605-5.372 3.575-7.55C6.849 3.055 9.286 1.602 12.085.98c2.802-.617 5.244-.93 7.32-.93h59.277c1.654 0 3.624.055 5.909.16 2.283.102 4.616.49 7 1.162 2.39.674 4.723 1.74 7.001 3.194 2.284 1.45 4.306 3.471 6.07 6.06 2.39 3.526 3.92 7.521 4.596 11.986.672 4.46 1.01 8.764 1.01 12.91 0 1.242-.025 2.93-.08 5.057-.052 2.124-.236 4.43-.55 6.92a104.03 104.03 0 0 1-1.24 7.63c-.515 2.59-1.24 4.975-2.175 7.15-2.075 4.876-4.903 8.352-8.48 10.426-3.58 2.076-7.495 3.114-11.748 3.114h-4.666v.62l31.115 32.518H70.12l-21.001-28.32a199.677 199.677 0 0 1-5.058-7.152c-1.61-2.388-2.414-4.928-2.414-7.62v-2.343c0-3.625 1.478-6.58 4.437-8.864 2.956-2.283 6.716-3.425 11.276-3.425h5.609c1.553 0 3.264-.18 5.127-.542 1.868-.366 3.427-1.273 4.676-2.724.827-1.14 1.421-2.567 1.783-4.277.366-1.715.55-3.296.55-4.747 0-3.01-.34-5.19-1.012-6.539-.674-1.346-1.222-2.229-1.64-2.644-1.35-1.448-2.907-2.249-4.668-2.404a57.75 57.75 0 0 0-5.128-.24H43.21c-1.043 0-2.003.081-2.884.239-.882.154-1.736.644-2.564 1.472-1.142 1.036-1.768 2.1-1.872 3.194-.102 1.089-.15 2.309-.15 3.655v73.278H.577V20.9z"/></svg>
